X:2388
T:Visa efter Niklas Larsson (EÖ30)
T:Jag går i tusen tankar
S:efter Niklas Larsson
B:EÖ, nr 30
B:Jämför [[http://www.smus.se/earkiv/fmk/browselarge.php?lang=sw&katalogid=Upprop+26e&bildnr=00039|SMUS - katalog Upprop 26 bild 39]] (annan melodi) och [[http://130.226.229.125/grundtvig/spillemand/seGrafik.cfm?gr_id=Gr.N.:FV~G.N.FV-0067&vNr=G.N.FV-0067&vTitel=Jeg%20g%E5r%20i%20tusind%20tanker.%20S%F8nderhoningdans.|Jeg går i tusind tanker]] (Hakon Grüner-Nielsen)
O:Svarteborg, Bohuslän
R:Visa
Z:Nils L
M:3/4
L:1/8
Q: 80
%%printtempo 0
K: G
c | Ac BA G2 AG | FG AB ce dc | BA Bd G2 AG | FA cB2< G2 ::
w: Ja går i tu-sen tan-kar ja äl-skar den ja ej kan få ja blott mitt hjär-ta van-kar stor sorg det vä-re må.
g | ec eg d2 Bg | ec eg2< d2c | BA Bd G2 AG | FA cB G2z :|
w: Stor sorg det med sig ha-ver den vän man har så kär å mång-e fal-ske vän-ner or-sa-ken där-till är.
(:musicend:)
(:music:)
